symbols/web/call_missed/materialsymbolsoutlined/call_missed_grad200_40px.svg

<svg xmlns="http://www.w3.org/2000/svg" height="40" width="40"><path d="M20.083 29.5 7.875 17.292v8.083h-3.5V11.208h13.958v3.5h-8.125l9.875 9.875 13.125-13.125 2.417 2.5Z"/></svg>

<svg xmlns="http://www.w3.org/2000/svg" height="40" width="40"><path d="M20.083 29.5 7.875 17.292V25.375H4.375V11.208H18.333V14.708H10.208L20.083 24.583L33.208 11.458L35.625 13.958Z"/></svg>
